art/logos/collections/Dragon Ball.svg

<?xml version="1.0" encoding="UTF-8" standalone="no"?>
<!-- Created with Inkscape (http://www.inkscape.org/) -->
<svg xmlns:svg="http://www.w3.org/2000/svg" xmlns="http://www.w3.org/2000/svg" version="1.0" width="320" height="240" id="svg2">
  <defs id="defs4"/>
  <g transform="translate(-162.85712,-226.6479)" id="layer1">
    <path d="M 309.85825,351.16815 L 326.64397,351.16815 L 346.54694,363.22577 L 346.54694,406.89072 L 370.19376,423.0242 L 310.57254,427.95386 L 309.85825,351.16815 z" id="path3216" style="fill:#000000;fill-opacity:1;fill-rule:evenodd;stroke:#000000;stroke-width:1px;stroke-linecap:square;stroke-linejoin:round;stroke-opacity:1"/>
    <path d="M 329.76122,363.53212 L 346.54694,363.53212 L 346.54694,423.17498 L 370.11837,423.17498 L 370.11837,440.31783 L 330.47551,440.31783 L 329.76122,363.53212 z" id="path2438" style="fill:#cb2400;fill-opacity:1;fill-rule:evenodd;stroke:#000000;stroke-width:1px;stroke-linecap:butt;stroke-linejoin:miter;stroke-opacity:1"/>
    <path d="M 247.9227,350.19335 L 243.57049,364.74126 C 240.61012,358.08151 226.24068,350.7871 217.32895,350.7871 C 212.28624,350.7871 193.32896,350.7871 193.32895,350.7871 L 193.32895,428.56835 L 212.16689,441.30928 L 267.87643,414.66604 L 290.12829,440.18278 L 340.22769,422.894 L 315.81761,404.88479 L 316.4283,362.97649 L 297.3602,350.7246 L 280.57895,350.7246 L 280.57895,360.87386 L 263.9852,350.19335 L 247.9227,350.19335 z" id="path2439" style="fill:#000000;fill-opacity:1;fill-rule:evenodd;stroke:#000000;stroke-width:1px;stroke-linecap:round;stroke-linejoin:round;stroke-opacity:1"/>
    <path d="M 277.80138,255.83122 L 271.1966,275.00586 C 269.27749,270.08046 255.88661,256.20622 244.45763,256.20622 L 221.02013,256.20622 C 221.44659,278.01025 222.09104,259.34504 202.27013,257.26872 L 181.67638,257.26872 L 181.67638,337.04262 L 202.42638,351.96909 L 227.0009,349.97442 L 232.83417,343.77133 L 241.42565,350.54564 L 257.3533,341.28663 L 269.65127,350.48361 L 297.35428,326.67266 L 324.15671,350.23447 L 394.45907,342.48234 L 426.25592,326.21532 L 445.25269,348.96142 L 458.64406,273.00168 L 437.80138,254.51872 L 422.80138,254.76872 L 422.80138,269.32354 L 407.42638,254.76872 L 391.89513,254.76872 L 391.89513,263.45622 C 387.60819,256.45055 380.13994,251.92497 372.05138,251.92497 C 362.67151,251.92497 355.77612,255.2895 351.64513,261.01872 C 347.81216,256.62194 341.94576,252.98747 334.20763,252.98747 C 315.2757,252.98747 313.65916,268.15422 313.65916,274.58279 L 293.86388,255.83122 L 277.80138,255.83122 z" id="path2419" style="fill:#000000;fill-opacity:1;fill-rule:evenodd;stroke:#000000;stroke-width:1px;stroke-linecap:round;stroke-linejoin:round;stroke-opacity:1"/>
    <g transform="translate(-64.52449,11.527075)" id="g2409" style="fill:#2f8acc;fill-opacity:1">
      <path d="M 523.21429,261.7525 L 508.21429,262.00504 L 508.21429,295.57647 L 492.85714,262.00504 L 477.30874,262.00504 L 477.30874,338.07647 L 491.4719,338.07647 L 491.4719,296.6479 L 510.35714,338.07647 L 523.21429,338.07647 L 523.21429,261.7525 z" id="path2418" style="fill:#2f8acc;fill-opacity:1;fill-rule:evenodd;stroke:#000000;stroke-width:1px;stroke-linecap:butt;stroke-linejoin:miter;stroke-opacity:1"/>
      <path d="M 457.46114,259.15625 C 441.2536,259.15625 432.51348,269.1992 432.51348,284.13531 C 432.51348,284.13531 432.51348,306.31704 432.51348,319.88848 C 432.51348,333.45991 449.06828,340.75 457.46114,340.75 C 467.6343,340.75 481.0625,331.38577 481.0625,319.13087 C 481.06251,310.91658 481.0625,292.32986 481.0625,284.13531 C 481.0625,270.04701 469.99274,259.15625 457.46114,259.15625 z M 457.46114,272.375 C 461.80564,272.375 466.4375,277.60655 466.4375,281.48144 L 466.4375,318.0625 C 466.4375,321.54942 460.93601,325.99159 457.46114,326.28125 C 453.79027,326.58725 447.96621,321.7461 447.96621,318.0625 L 447.96621,281.48144 C 447.96621,275.11386 453.11664,272.375 457.46114,272.375 z" id="path2420" style="fill:#2f8acc;fill-opacity:1;fill-rule:evenodd;stroke:#000000;stroke-width:1px;stroke-linecap:butt;stroke-linejoin:miter;stroke-opacity:1"/>
      <path d="M 430.06128,287.36218 L 442.66588,287.36218 C 442.66588,287.36218 442.30874,282.00504 442.30874,279.86218 C 442.30874,273.17363 434.29098,260.21932 419.64286,260.21932 C 400.71092,260.21932 395.16588,276.29075 395.16588,282.71932 C 395.16588,289.1479 395.16588,310.85746 395.16588,315.50032 C 395.16588,331.76249 405.42675,340.30511 419.115,340.30511 C 428.75786,340.30511 442.5,334.64094 442.5,317.71932 C 442.5,309.50504 442.5,295.21932 442.5,295.21932 L 414.64286,295.21932 L 414.64286,308.43361 L 429.64286,308.43361 C 429.64286,308.43361 429.64286,313.19901 429.64286,317.12759 C 429.64286,321.05616 426.26626,326.82901 419.74027,326.82901 C 410.94145,326.82901 408.2694,318.41894 408.2694,312.18153 L 408.2694,287.47422 C 408.2694,283.43353 409.98155,272.83182 419.21959,272.83182 C 427.02365,272.83182 430.06128,280.55532 430.06128,287.36218 z" id="path2424" style="fill:#2f8acc;fill-opacity:1;fill-rule:evenodd;stroke:#000000;stroke-width:1px;stroke-linecap:butt;stroke-linejoin:miter;stroke-opacity:1"/>
      <path d="M 363.21875,263.0625 L 339.65625,338.78125 L 357.15625,338.78125 L 360.71875,328.4375 L 385.34375,328.4375 L 388.9375,338.78125 L 405.34375,338.78125 L 379.28125,263.0625 L 363.21875,263.0625 z M 372.15625,289.15625 L 380.71875,314.15625 L 364.28125,314.15625 L 372.15625,289.15625 z" id="path2426" style="fill:#2f8acc;fill-opacity:1;fill-rule:evenodd;stroke:#000000;stroke-width:1px;stroke-linecap:butt;stroke-linejoin:miter;stroke-opacity:1"/>
      <path d="M 306.4375,263.4375 L 306.4375,339.15625 C 306.43751,339.15626 322.15625,339.15625 322.15625,339.15625 L 322.15625,312.20019 C 326.67292,312.20019 334.65625,316.66503 334.65625,323.53125 L 334.65625,339.15625 L 350.34375,339.15625 L 350.34375,319.5 C 350.34375,313.88364 344.83294,308.47702 340.78905,307.21367 C 344.07205,305.95097 348.9375,299.13013 348.9375,294.11739 L 348.9375,280.52364 C 348.93751,276.23794 341.30398,263.4375 329.875,263.4375 L 306.4375,263.4375 z M 322.15625,276.82519 C 326.30664,276.30639 334.32011,278.09518 334.32011,287.30489 C 334.32011,299.27025 324.88771,298.74239 322.15625,298.74239 L 322.15625,276.82519 z" id="path2430" style="fill:#2f8acc;fill-opacity:1;fill-rule:evenodd;stroke:#000000;stroke-width:1px;stroke-linecap:butt;stroke-linejoin:miter;stroke-opacity:1"/>
      <path d="M 267.09375,264.5 L 267.09375,339.15625 L 287.84375,339.15625 C 297.61658,339.15625 311.23731,327.38252 311.23731,314.5 L 311.23731,290.5625 C 311.23731,280.34667 304.11082,264.5 287.6875,264.5 L 267.09375,264.5 z M 282.01015,277 C 286.25052,277.02639 296.59375,278.81108 296.59375,291.64277 L 296.59375,311.08027 C 296.59375,324.09731 285.08021,326.30886 282.01015,325.9375 L 282.01015,277 z" id="path2434" style="fill:#2f8acc;fill-opacity:1;fill-rule:evenodd;stroke:#000000;stroke-width:1px;stroke-linecap:butt;stroke-linejoin:miter;stroke-opacity:1"/>
    </g>
    <g transform="translate(-64.52449,11.527075)" id="g3355" style="fill:#cb2400;fill-opacity:1">
      <path d="M 364.28571,352.00504 L 381.07143,352.00504 L 381.07143,411.6479 L 404.64286,411.6479 L 404.64286,428.79075 L 365,428.79075 L 364.28571,352.00504 z" id="path2440" style="fill:#cb2400;fill-opacity:1;fill-rule:evenodd;stroke:#000000;stroke-width:1px;stroke-linecap:butt;stroke-linejoin:miter;stroke-opacity:1"/>
      <path d="M 331.65149,351.45084 L 306.8263,428.68482 L 325.33645,428.68482 L 328.89895,418.34107 L 351.25111,418.34107 L 354.84486,428.68482 L 372.5138,428.68482 L 347.71399,351.45084 L 331.65149,351.45084 z M 340.33645,381.08013 L 346.87865,402.54459 L 333.21906,402.54459 L 340.33645,381.08013 z" id="path2463" style="fill:#cb2400;fill-opacity:1;fill-rule:evenodd;stroke:#000000;stroke-width:1px;stroke-linecap:butt;stroke-linejoin:miter;stroke-opacity:1"/>
      <path d="M 277.03125,352.0625 L 277.03125,429.84375 L 303.03125,429.84375 C 319.35957,429.84375 327.4776,399.05417 313.90625,391.21875 C 326.28584,383.27815 322.94602,352.0625 301.03125,352.0625 C 295.98854,352.0625 277.03126,352.06249 277.03125,352.0625 z M 303.8125,376.0625 C 303.8125,383.63134 293.4375,382.375 293.4375,382.375 L 293.4375,368.5 C 293.4375,368.5 303.8125,367.35265 303.8125,376.0625 z M 303.8125,407.375 C 303.8125,414.94375 293.4375,413.6875 293.4375,413.6875 L 293.4375,399.8125 C 293.4375,399.8125 303.8125,398.67155 303.8125,407.375 z" id="path2465" style="fill:#cb2400;fill-opacity:1;fill-rule:evenodd;stroke:#000000;stroke-width:1px;stroke-linecap:butt;stroke-linejoin:miter;stroke-opacity:1"/>
    </g>
    <g transform="translate(-64.52449,11.527075)" id="g3270" style="fill:#f8dd00;fill-opacity:1">
      <path d="M 452.80087,362.93307 A 10.354064,10.354064 0 1 1 432.09274,362.93307 A 10.354064,10.354064 0 1 1 452.80087,362.93307 z" transform="matrix(1.1829269,0,0,1.2019317,-81.314197,-72.530081)" id="path3254" style="opacity:1;fill:#f8dd00;fill-opacity:1;stroke:#000000;stroke-width:0.83865082;stroke-linecap:butt;stroke-linejoin:round;stroke-miterlimit:4;stroke-dasharray:none;stroke-opacity:1"/>
      <path d="M 452.80087,362.93307 A 10.354064,10.354064 0 1 1 432.09274,362.93307 A 10.354064,10.354064 0 1 1 452.80087,362.93307 z" transform="matrix(1.1829269,0,0,1.2019317,-56.817998,-72.530081)" id="path3258" style="opacity:1;fill:#f8dd00;fill-opacity:1;stroke:#000000;stroke-width:0.83865082;stroke-linecap:butt;stroke-linejoin:round;stroke-miterlimit:4;stroke-dasharray:none;stroke-opacity:1"/>
      <path d="M 452.80087,362.93307 A 10.354064,10.354064 0 1 1 432.09274,362.93307 A 10.354064,10.354064 0 1 1 452.80087,362.93307 z" transform="matrix(1.1829269,0,0,1.2019317,-31.816722,-72.530081)" id="path3260" style="opacity:1;fill:#f8dd00;fill-opacity:1;stroke:#000000;stroke-width:0.83865082;stroke-linecap:butt;stroke-linejoin:round;stroke-miterlimit:4;stroke-dasharray:none;stroke-opacity:1"/>
      <path d="M 452.80087,362.93307 A 10.354064,10.354064 0 1 1 432.09274,362.93307 A 10.354064,10.354064 0 1 1 452.80087,362.93307 z" transform="matrix(1.1829269,0,0,1.2019317,-7.0679846,-72.530081)" id="path3262" style="opacity:1;fill:#f8dd00;fill-opacity:1;stroke:#000000;stroke-width:0.83865082;stroke-linecap:butt;stroke-linejoin:round;stroke-miterlimit:4;stroke-dasharray:none;stroke-opacity:1"/>
      <path d="M 452.80087,362.93307 A 10.354064,10.354064 0 1 1 432.09274,362.93307 A 10.354064,10.354064 0 1 1 452.80087,362.93307 z" transform="matrix(1.1829269,0,0,1.2019317,-56.817998,-42.225505)" id="path3264" style="opacity:1;fill:#f8dd00;fill-opacity:1;stroke:#000000;stroke-width:0.83865082;stroke-linecap:butt;stroke-linejoin:round;stroke-miterlimit:4;stroke-dasharray:none;stroke-opacity:1"/>
      <path d="M 452.80087,362.93307 A 10.354064,10.354064 0 1 1 432.09274,362.93307 A 10.354064,10.354064 0 1 1 452.80087,362.93307 z" transform="matrix(1.1829269,0,0,1.2019317,-31.816722,-42.225505)" id="path3266" style="opacity:1;fill:#f8dd00;fill-opacity:1;stroke:#000000;stroke-width:0.83865082;stroke-linecap:butt;stroke-linejoin:round;stroke-miterlimit:4;stroke-dasharray:none;stroke-opacity:1"/>
      <path d="M 452.80087,362.93307 A 10.354064,10.354064 0 1 1 432.09274,362.93307 A 10.354064,10.354064 0 1 1 452.80087,362.93307 z" transform="matrix(1.1829269,0,0,1.2019317,-7.0679846,-42.225505)" id="path3268" style="opacity:1;fill:#f8dd00;fill-opacity:1;stroke:#000000;stroke-width:0.83865082;stroke-linecap:butt;stroke-linejoin:round;stroke-miterlimit:4;stroke-dasharray:none;stroke-opacity:1"/>
    </g>
    <path d="M 433.51641,367.46007 L 432.68652,368.0947 C 433.25534,368.62291 433.89964,369.29996 434.59038,370.19383 L 435.37146,369.60803 C 434.76198,368.79542 434.16649,368.06955 433.51641,367.46007 z M 382.31252,367.85061 L 381.23854,368.63168 C 382.30446,369.43594 383.18178,370.26686 383.87467,371.12136 L 384.94865,370.34028 C 384.09587,369.28472 383.21855,368.45381 382.31252,367.85061 z M 407.28634,398.02646 L 406.50526,398.7099 C 407.11472,399.23811 407.7754,399.8988 408.50677,400.7114 L 409.28785,399.97915 C 408.63773,399.20717 407.97706,398.55467 407.28634,398.02646 z M 431.85662,367.99706 L 431.07555,368.63168 C 431.53983,369.12694 431.98427,369.70116 432.44243,370.29147 L 421.65383,370.29147 L 421.65383,372.29297 L 431.02673,372.29297 L 431.02673,378.68802 L 421.65383,378.68802 L 421.65383,380.49427 L 431.02673,380.49427 L 431.02673,381.61706 L 432.83297,381.61706 L 432.83297,370.77964 C 432.84732,370.79873 432.8674,370.80929 432.88178,370.82846 L 433.66286,370.19383 C 433.09401,369.38123 432.50671,368.64717 431.85662,367.99706 z M 373.57423,368.04588 L 373.57423,383.13039 L 375.42929,383.13039 L 375.42929,375.07555 C 377.24138,375.52794 380.00085,376.79184 382.70306,378.63921 L 383.92348,376.73534 C 381.25862,375.52898 378.04083,373.48487 375.42929,372.78114 L 375.38048,368.04588 L 373.57423,368.04588 z M 401.23301,398.417 L 401.23301,401.5413 L 395.76548,401.5413 L 395.76548,403.29871 L 401.23301,403.29871 L 401.23301,412.67162 L 402.9416,412.67162 L 402.9416,403.29871 L 408.26268,403.29871 L 408.26268,401.5413 L 407.1887,401.5413 L 407.87214,400.76022 C 407.22203,400.06951 406.56136,399.4822 405.87064,398.95398 L 405.13838,399.68625 C 405.73332,400.16222 406.38039,400.79365 407.09107,401.5413 L 402.9416,401.5413 L 402.9416,398.90516 C 403.30727,398.6614 403.24209,398.49828 402.79515,398.417 L 401.23301,398.417 z M 397.46027,369.02222 L 397.46027,370.87728 L 407.12608,370.87728 L 407.12608,369.02222 L 397.46027,369.02222 z M 448.33403,399.2957 L 448.33403,403.05463 C 448.33401,405.93944 447.29009,408.3781 445.25855,410.32839 L 446.62543,411.64646 C 448.77887,409.65554 450.14026,406.41882 450.14026,403.00581 L 450.14026,399.2957 L 448.33403,399.2957 z M 452.09296,399.2957 L 452.09296,411.69528 L 453.80156,411.69528 C 456.98139,411.19405 459.29157,407.25503 460.09898,404.66559 L 458.58564,403.98216 C 457.4289,406.53098 456.02261,409.19774 453.80156,409.4985 L 453.80156,399.2957 L 452.09296,399.2957 z M 380.31101,369.21749 L 379.23703,369.94975 C 380.14307,370.60321 381.06473,371.48151 381.97079,372.53706 L 382.99595,371.8048 C 382.08989,370.74924 381.21705,369.87094 380.31101,369.21749 z M 448.24993,370.25851 L 447.22477,371.52776 C 448.19992,372.17786 449.20322,373.00166 450.30026,374.01744 L 451.47187,372.89464 C 450.17168,371.67572 449.10318,370.78672 448.24993,370.25851 z M 458.01337,372.74819 C 456.18497,376.97381 452.16509,380.38823 446.88305,380.51012 L 447.3224,382.36518 C 452.31824,382.26874 457.88474,378.1684 459.42907,373.38281 L 458.01337,372.74819 z M 396.77683,372.73233 L 396.77683,374.53856 L 406.00328,374.53856 C 406.03566,377.6374 404.8912,379.60905 398.63188,380.8848 L 399.5106,382.44695 C 403.62017,381.69864 408.15124,380.69532 408.15124,372.73233 L 396.77683,372.73233 z M 419.88118,403.78437 L 419.88118,405.63942 L 433.98935,405.63942 L 433.98935,403.78437 L 419.88118,403.78437 z M 398.35279,405.2514 L 395.57021,411.01183 L 396.88828,411.74409 L 399.62204,406.13011 L 398.35279,405.2514 z M 405.4801,405.2514 L 404.21085,406.13011 L 407.38398,411.69528 L 408.70204,410.76775 L 405.4801,405.2514 z" id="text4830" style="font-size:9.98771477px;font-style:normal;font-variant:normal;font-weight:normal;font-stretch:normal;fill:#000000;fill-opacity:1;stroke:none;stroke-width:1px;stroke-linecap:butt;stroke-linejoin:miter;stroke-opacity:1;font-family:MS PGothic;-inkscape-font-specification:MS PGothic"/>
  </g>
</svg>

<svg xmlns="http://www.w3.org/2000/svg" version="1.0" viewBox="0 0 320 240"><path d="M309.858 351.168h16.786l19.903 12.058v43.665l23.647 16.133-59.621 4.93z" style="fill:#000;fill-opacity:1;fill-rule:evenodd;stroke:#000;stroke-width:1px;stroke-linecap:square;stroke-linejoin:round;stroke-opacity:1" transform="translate(-162.857 -226.648)"/><path d="M329.761 363.532h16.786v59.643h23.571v17.143h-39.642z" style="fill:#cb2400;fill-opacity:1;fill-rule:evenodd;stroke:#000;stroke-width:1px;stroke-linecap:butt;stroke-linejoin:miter;stroke-opacity:1" transform="translate(-162.857 -226.648)"/><path d="m247.923 350.193-4.353 14.548c-2.96-6.66-17.33-13.954-26.241-13.954h-24v77.781l18.838 12.741 55.71-26.643 22.251 25.517 50.1-17.289-24.41-18.01.61-41.908-19.068-12.251H280.58v10.149l-16.594-10.68z" style="fill:#000;fill-opacity:1;fill-rule:evenodd;stroke:#000;stroke-width:1px;stroke-linecap:round;stroke-linejoin:round;stroke-opacity:1" transform="translate(-162.857 -226.648)"/><path d="m277.801 255.831-6.604 19.175c-1.92-4.926-15.31-18.8-26.74-18.8H221.02c.427 21.804 1.071 3.139-18.75 1.063h-20.594v79.774l20.75 14.926 24.575-1.995 5.833-6.203 8.592 6.775 15.927-9.26 12.298 9.198 27.703-23.811 26.803 23.561 70.302-7.752 31.797-16.267 18.997 22.746 13.391-75.96-20.843-18.482-15 .25v14.555l-15.375-14.555h-15.53v8.687c-4.288-7.005-11.756-11.531-19.845-11.531-9.38 0-16.275 3.364-20.406 9.094-3.833-4.397-9.7-8.032-17.437-8.032-18.932 0-20.549 15.167-20.549 21.596l-19.795-18.752z" style="fill:#000;fill-opacity:1;fill-rule:evenodd;stroke:#000;stroke-width:1px;stroke-linecap:round;stroke-linejoin:round;stroke-opacity:1" transform="translate(-162.857 -226.648)"/><g style="fill:#2f8acc;fill-opacity:1"><path d="m523.214 261.753-15 .252v33.571l-15.357-33.571H477.31v76.071h14.163v-41.428l18.885 41.428h12.857z" style="fill:#2f8acc;fill-opacity:1;fill-rule:evenodd;stroke:#000;stroke-width:1px;stroke-linecap:butt;stroke-linejoin:miter;stroke-opacity:1" transform="translate(-227.382 -215.12)"/><path d="M457.461 259.156c-16.207 0-24.948 10.043-24.948 24.98v35.752c0 13.572 16.555 20.862 24.948 20.862 10.173 0 23.601-9.364 23.601-21.62v-34.995c0-14.088-11.07-24.979-23.6-24.979zm0 13.219c4.345 0 8.976 5.232 8.976 9.106v36.582c0 3.486-5.501 7.929-8.976 8.218-3.67.306-9.495-4.535-9.495-8.219v-36.58c0-6.368 5.15-9.107 9.495-9.107z" style="fill:#2f8acc;fill-opacity:1;fill-rule:evenodd;stroke:#000;stroke-width:1px;stroke-linecap:butt;stroke-linejoin:miter;stroke-opacity:1" transform="translate(-227.382 -215.12)"/><path d="M430.061 287.362h12.605s-.357-5.357-.357-7.5c0-6.688-8.018-19.643-22.666-19.643-18.932 0-24.477 16.072-24.477 22.5V315.5c0 16.262 10.26 24.805 23.949 24.805 9.643 0 23.385-5.664 23.385-22.586v-22.5h-27.857v13.215h15v8.694c0 3.928-3.377 9.701-9.903 9.701-8.799 0-11.47-8.41-11.47-14.647v-24.708c0-4.04 1.712-14.642 10.95-14.642 7.804 0 10.841 7.723 10.841 14.53z" style="fill:#2f8acc;fill-opacity:1;fill-rule:evenodd;stroke:#000;stroke-width:1px;stroke-linecap:butt;stroke-linejoin:miter;stroke-opacity:1" transform="translate(-227.382 -215.12)"/><path d="m363.219 263.063-23.563 75.718h17.5l3.563-10.344h24.625l3.594 10.344h16.406l-26.063-75.718zm8.937 26.093 8.563 25H364.28z" style="fill:#2f8acc;fill-opacity:1;fill-rule:evenodd;stroke:#000;stroke-width:1px;stroke-linecap:butt;stroke-linejoin:miter;stroke-opacity:1" transform="translate(-227.382 -215.12)"/><path d="M306.438 263.438v75.718h15.718V312.2c4.517 0 12.5 4.465 12.5 11.331v15.625h15.688V319.5c0-5.616-5.511-11.023-9.555-12.286 3.283-1.263 8.149-8.084 8.149-13.097v-13.593c0-4.286-7.634-17.086-19.063-17.086zm15.718 13.387c4.15-.519 12.164 1.27 12.164 10.48 0 11.965-9.432 11.437-12.164 11.437z" style="fill:#2f8acc;fill-opacity:1;fill-rule:evenodd;stroke:#000;stroke-width:1px;stroke-linecap:butt;stroke-linejoin:miter;stroke-opacity:1" transform="translate(-227.382 -215.12)"/><path d="M267.094 264.5v74.656h20.75c9.773 0 23.393-11.773 23.393-24.656v-23.937c0-10.216-7.126-26.063-23.55-26.063zM282.01 277c4.24.026 14.584 1.811 14.584 14.643v19.437c0 13.017-11.514 15.229-14.584 14.858z" style="fill:#2f8acc;fill-opacity:1;fill-rule:evenodd;stroke:#000;stroke-width:1px;stroke-linecap:butt;stroke-linejoin:miter;stroke-opacity:1" transform="translate(-227.382 -215.12)"/></g><g style="fill:#cb2400;fill-opacity:1"><path d="M364.286 352.005h16.785v59.643h23.572v17.143H365z" style="fill:#cb2400;fill-opacity:1;fill-rule:evenodd;stroke:#000;stroke-width:1px;stroke-linecap:butt;stroke-linejoin:miter;stroke-opacity:1" transform="translate(-227.382 -215.12)"/><path d="m331.651 351.45-24.825 77.235h18.51l3.563-10.344h22.352l3.594 10.344h17.669l-24.8-77.234zm8.685 29.63 6.543 21.465h-13.66z" style="fill:#cb2400;fill-opacity:1;fill-rule:evenodd;stroke:#000;stroke-width:1px;stroke-linecap:butt;stroke-linejoin:miter;stroke-opacity:1" transform="translate(-227.382 -215.12)"/><path d="M277.031 352.063v77.78h26c16.329 0 24.447-30.789 10.875-38.624 12.38-7.94 9.04-39.156-12.875-39.156zm26.781 24c0 7.568-10.375 6.312-10.375 6.312V368.5s10.375-1.147 10.375 7.563zm0 31.312c0 7.569-10.375 6.313-10.375 6.313v-13.875s10.375-1.141 10.375 7.562z" style="fill:#cb2400;fill-opacity:1;fill-rule:evenodd;stroke:#000;stroke-width:1px;stroke-linecap:butt;stroke-linejoin:miter;stroke-opacity:1" transform="translate(-227.382 -215.12)"/></g><g style="fill:#f8dd00;fill-opacity:1"><path d="M452.8 362.933a10.354 10.354 0 1 1-20.707 0 10.354 10.354 0 1 1 20.708 0z" style="opacity:1;fill:#f8dd00;fill-opacity:1;stroke:#000;stroke-width:.83865082;stroke-linecap:butt;stroke-linejoin:round;stroke-miterlimit:4;stroke-dasharray:none;stroke-opacity:1" transform="matrix(1.18293 0 0 1.20193 -308.696 -287.65)"/><path d="M452.8 362.933a10.354 10.354 0 1 1-20.707 0 10.354 10.354 0 1 1 20.708 0z" style="opacity:1;fill:#f8dd00;fill-opacity:1;stroke:#000;stroke-width:.83865082;stroke-linecap:butt;stroke-linejoin:round;stroke-miterlimit:4;stroke-dasharray:none;stroke-opacity:1" transform="matrix(1.18293 0 0 1.20193 -284.2 -287.65)"/><path d="M452.8 362.933a10.354 10.354 0 1 1-20.707 0 10.354 10.354 0 1 1 20.708 0z" style="opacity:1;fill:#f8dd00;fill-opacity:1;stroke:#000;stroke-width:.83865082;stroke-linecap:butt;stroke-linejoin:round;stroke-miterlimit:4;stroke-dasharray:none;stroke-opacity:1" transform="matrix(1.18293 0 0 1.20193 -259.198 -287.65)"/><path d="M452.8 362.933a10.354 10.354 0 1 1-20.707 0 10.354 10.354 0 1 1 20.708 0z" style="opacity:1;fill:#f8dd00;fill-opacity:1;stroke:#000;stroke-width:.83865082;stroke-linecap:butt;stroke-linejoin:round;stroke-miterlimit:4;stroke-dasharray:none;stroke-opacity:1" transform="matrix(1.18293 0 0 1.20193 -234.45 -287.65)"/><path d="M452.8 362.933a10.354 10.354 0 1 1-20.707 0 10.354 10.354 0 1 1 20.708 0z" style="opacity:1;fill:#f8dd00;fill-opacity:1;stroke:#000;stroke-width:.83865082;stroke-linecap:butt;stroke-linejoin:round;stroke-miterlimit:4;stroke-dasharray:none;stroke-opacity:1" transform="matrix(1.18293 0 0 1.20193 -284.2 -257.346)"/><path d="M452.8 362.933a10.354 10.354 0 1 1-20.707 0 10.354 10.354 0 1 1 20.708 0z" style="opacity:1;fill:#f8dd00;fill-opacity:1;stroke:#000;stroke-width:.83865082;stroke-linecap:butt;stroke-linejoin:round;stroke-miterlimit:4;stroke-dasharray:none;stroke-opacity:1" transform="matrix(1.18293 0 0 1.20193 -259.198 -257.346)"/><path d="M452.8 362.933a10.354 10.354 0 1 1-20.707 0 10.354 10.354 0 1 1 20.708 0z" style="opacity:1;fill:#f8dd00;fill-opacity:1;stroke:#000;stroke-width:.83865082;stroke-linecap:butt;stroke-linejoin:round;stroke-miterlimit:4;stroke-dasharray:none;stroke-opacity:1" transform="matrix(1.18293 0 0 1.20193 -234.45 -257.346)"/></g><path d="m433.516 367.46-.83.635a17 17 0 0 1 1.904 2.099l.781-.586c-.609-.813-1.205-1.538-1.855-2.148m-51.203.39-1.074.782q1.597 1.207 2.636 2.49l1.074-.782q-1.278-1.583-2.636-2.49m24.973 30.176-.78.684c.609.528 1.27 1.189 2 2.001l.782-.732c-.65-.772-1.31-1.424-2.002-1.953m24.57-30.029-.78.635c.464.495.908 1.07 1.366 1.66h-10.788v2.001h9.373v6.395h-9.373v1.806h9.373v1.123h1.806V370.78c.014.019.034.03.049.048l.78-.634c-.568-.813-1.155-1.547-1.805-2.197m-58.282.049v15.084h1.855v-8.054c1.812.452 4.572 1.716 7.274 3.563l1.22-1.904c-2.664-1.206-5.882-3.25-8.494-3.954l-.049-4.735zm27.659 30.371v3.124h-5.468v1.758h5.468v9.373h1.709v-9.373h5.32v-1.758h-1.073l.683-.78c-.65-.691-1.31-1.279-2.001-1.807l-.733.732c.595.476 1.242 1.108 1.953 1.855h-4.15v-2.636c.366-.244.301-.407-.146-.488zm-3.773-29.395v1.855h9.666v-1.855zm50.874 30.274v3.759c0 2.884-1.044 5.323-3.075 7.273l1.366 1.318c2.154-1.99 3.515-5.227 3.515-8.64v-3.71zm3.759 0v12.4h1.709c3.18-.502 5.49-4.441 6.297-7.03l-1.513-.684c-1.157 2.549-2.563 5.216-4.784 5.516v-10.202zm-71.782-30.079-1.074.733c.906.653 1.828 1.532 2.734 2.587l1.025-.732c-.906-1.056-1.779-1.934-2.685-2.588m67.939 1.042-1.025 1.269c.975.65 1.978 1.474 3.075 2.49l1.172-1.123c-1.3-1.22-2.369-2.108-3.222-2.636m9.763 2.49c-1.828 4.225-5.848 7.64-11.13 7.761l.44 1.855c4.995-.096 10.562-4.197 12.106-8.982zm-61.236-.017v1.807h9.226c.033 3.098-1.112 5.07-7.371 6.346l.879 1.562c4.11-.748 8.64-1.752 8.64-9.715zm23.104 31.052v1.855h14.108v-1.855zm-21.528 1.467-2.783 5.76 1.318.733 2.734-5.614zm7.127 0-1.27.88 3.174 5.564 1.318-.927z" style="font-size:9.98771477px;font-style:normal;font-variant:normal;font-weight:400;font-stretch:normal;fill:#000;fill-opacity:1;stroke:none;stroke-width:1px;stroke-linecap:butt;stroke-linejoin:miter;stroke-opacity:1;font-family:MS PGothic;-inkscape-font-specification:MS PGothic" transform="translate(-162.857 -226.648)"/></svg>
